X: 22548
T: Lady Isabella
R: reel
M: 4/4
K: Eminor
e3f gfed|Beef gaf2-|fefa bagf|gabe' ze=fe|
Beef gfed|ABGB AGF2-|FGAd zDFD|FGE2 zBBA|
Beef gfed|Beef gaf2-|fefa bagf|gabe' ze=fe|
Beef gfed|ABGB AGF2-|FGAd zDFD|FGE2 zEED||
|:EBBE BcEc|dEdc BAGA|A3G ABdB|BABd BBAG|
EBBE BcEc|dEdc BAGA|A3d zDFD|1 FGGF GBGF:|2 FGE2 zBBA||

